X:22
T:Chief O'Neill's
T:Flowers of Adrigole, The
R:hornpipe
H:1st bar of 2nd part also played |=FEFG AGAB|. Also played with ^F in this bar.
D:Paddy Glackin: In Full Spate
Z:id:hn-hornpipe-22
M:C|
K:Dmix
de|fefg afge|fded dcAG|~F3D FGAB|cAdc A2de|
fefg afge|fded dcAG|FEFD GBAG|F2D2 D2:|
|:DE|=F2FE FGAB|cAdB cAGB|Adde fded|^cAdc A2de|
f2fg afge|fded dcAG|F2FD GBAG|F2D2 D2:|
P:variations
de|~f3g (3agf ge|fde^c d=cAG|~F3D (3EFG AB|cAdc A2de|
~f3g afge|fde^c d=cAG|~F3D GBAG|F2D2 D2:|
|:DE|=F3E FGAB|cAdB cAGB|Ad~d2 fded|(3^cBA dc A2de|
fefg (3agf ge|fde^c d=cAG|F2FD GBAG|F2D2 D2:|
<end>
<start>
